source/svg/icons/global.svg

<svg xmlns="http://www.w3.org/2000/svg" width="32" height="32" viewBox="0 0 32 32"><path d="M.034 16.668C.388 25.179 7.403 32 16 32s15.612-6.821 15.966-15.332A.493.493 0 0 0 32 16.5c0-.036-.013-.067-.02-.1.003-.134.02-.265.02-.4 0-8.822-7.178-16-16-16S0 7.178 0 16c0 .135.017.266.02.4-.007.033-.02.064-.02.1 0 .06.015.115.034.168zm24.887 6.074a21.921 21.921 0 0 0-4.215-1.271c.158-1.453.251-2.962.28-4.47h4.98c-.091 2.054-.456 3.993-1.045 5.741zM26.965 17h3.984a14.885 14.885 0 0 1-2.663 7.579 17.158 17.158 0 0 0-2.457-1.44c.645-1.869 1.042-3.943 1.136-6.139zm-14.576 5.286A23.416 23.416 0 0 1 16 22c1.224 0 2.433.102 3.61.286C18.916 27.621 17.4 31 16 31s-2.916-3.379-3.611-8.714zm1.519 8.378c-2.751-.882-5.078-3.471-6.482-6.984a20.873 20.873 0 0 1 3.99-1.217c.459 3.496 1.298 6.542 2.492 8.201zm-1.634-19.955A24.43 24.43 0 0 0 16 11a24.43 24.43 0 0 0 3.726-.291c.172 1.62.274 3.388.274 5.291h-8c0-1.903.102-3.671.274-5.291zM19.985 17a49.022 49.022 0 0 1-.26 4.291A24.397 24.397 0 0 0 16 21a24.42 24.42 0 0 0-3.726.291 48.668 48.668 0 0 1-.26-4.291h7.971zm.6 5.463c1.404.282 2.743.692 3.99 1.217-1.404 3.513-3.731 6.102-6.482 6.984 1.193-1.659 2.032-4.705 2.492-8.201zM21 16c0-1.836-.102-3.696-.294-5.47 1.48-.292 2.896-.72 4.215-1.271C25.605 11.288 26 13.574 26 16h-5zm-.415-6.463c-.46-3.496-1.298-6.543-2.493-8.201 2.751.882 5.078 3.471 6.482 6.984a20.792 20.792 0 0 1-3.989 1.217zm-.974.177C18.433 9.898 17.224 10 16 10s-2.433-.102-3.611-.286C13.084 4.379 14.6 1 16 1c1.4 0 2.916 3.379 3.611 8.714zm-8.196-.177a20.895 20.895 0 0 1-3.99-1.217c1.404-3.513 3.731-6.102 6.482-6.984-1.193 1.659-2.032 4.705-2.492 8.201zm-.121.993A51.315 51.315 0 0 0 11 16H6c0-2.426.395-4.712 1.079-6.742 1.319.552 2.735.979 4.215 1.272zm-.28 6.47c.029 1.508.122 3.017.28 4.471-1.48.292-2.896.72-4.215 1.271-.589-1.748-.954-3.687-1.045-5.742h4.98zM6.17 23.139a17.24 17.24 0 0 0-2.456 1.44A14.882 14.882 0 0 1 1.051 17h3.984c.094 2.196.491 4.27 1.135 6.139zM4.313 25.38a16.126 16.126 0 0 1 2.207-1.305c1.004 2.485 2.449 4.548 4.186 5.943a15.05 15.05 0 0 1-6.393-4.638zm16.981 4.637c1.738-1.394 3.182-3.458 4.186-5.943.79.384 1.522.826 2.207 1.305a15.033 15.033 0 0 1-6.393 4.638zM27 16c0-2.567-.428-4.987-1.17-7.139.88-.422 1.698-.907 2.457-1.44A14.91 14.91 0 0 1 31 16h-4zm.688-9.38c-.685.479-1.417.921-2.207 1.305-1.004-2.485-2.449-4.549-4.186-5.943a15.062 15.062 0 0 1 6.393 4.638zM10.706 1.983C8.968 3.377 7.524 5.441 6.52 7.926A16.173 16.173 0 0 1 4.313 6.62a15.04 15.04 0 0 1 6.393-4.637zM3.714 7.421a17.185 17.185 0 0 0 2.456 1.44A21.954 21.954 0 0 0 5 16H1c0-3.19 1.009-6.145 2.714-8.579z"/></svg>

<?xml version="1.0" encoding="utf-8"?>
<!-- Generator: Adobe Illustrator 17.0.2, SVG Export Plug-In . SVG Version: 6.00 Build 0)  -->
<!DOCTYPE svg PUBLIC "-//W3C//DTD SVG 1.1//EN" "http://www.w3.org/Graphics/SVG/1.1/DTD/svg11.dtd">
<svg version="1.1" id="Layer_1" xmlns="http://www.w3.org/2000/svg" xmlns:xlink="http://www.w3.org/1999/xlink" x="0px" y="0px"
	 width="32px" height="32px" viewBox="0 0 32 32" enable-background="new 0 0 32 32" xml:space="preserve">
<g>
	<path fill="#828282" d="M0.034,16.668C0.388,25.179,7.403,32,16,32s15.612-6.821,15.966-15.332C31.985,16.615,32,16.56,32,16.5
		c0-0.036-0.013-0.067-0.02-0.1C31.983,16.266,32,16.135,32,16c0-8.822-7.178-16-16-16S0,7.178,0,16c0,0.135,0.017,0.266,0.02,0.4
		C0.013,16.433,0,16.464,0,16.5C0,16.56,0.015,16.615,0.034,16.668z M24.921,22.742c-1.319-0.552-2.735-0.979-4.215-1.271
		c0.158-1.453,0.251-2.962,0.28-4.47h4.98C25.875,19.055,25.51,20.994,24.921,22.742z M26.965,17h3.984
		c-0.186,2.806-1.138,5.403-2.663,7.579c-0.759-0.533-1.577-1.019-2.457-1.44C26.474,21.27,26.871,19.196,26.965,17z M12.389,22.286
		C13.567,22.102,14.776,22,16,22c1.224,0,2.433,0.102,3.61,0.286C18.916,27.621,17.4,31,16,31S13.084,27.621,12.389,22.286z
		 M13.908,30.664c-2.751-0.882-5.078-3.471-6.482-6.984c1.246-0.525,2.586-0.935,3.99-1.217
		C11.875,25.959,12.714,29.005,13.908,30.664z M12.274,10.709C13.491,10.897,14.739,11,16,11c1.261,0,2.509-0.103,3.726-0.291
		C19.898,12.329,20,14.097,20,16h-8C12,14.097,12.102,12.329,12.274,10.709z M19.985,17c-0.028,1.525-0.118,2.961-0.26,4.291
		C18.509,21.103,17.262,21,16,21c-1.262,0-2.509,0.103-3.726,0.291c-0.173-1.626-0.237-3.057-0.26-4.291H19.985z M20.585,22.463
		c1.404,0.282,2.743,0.692,3.99,1.217c-1.404,3.513-3.731,6.102-6.482,6.984C19.286,29.005,20.125,25.959,20.585,22.463z M21,16
		c0-1.836-0.102-3.696-0.294-5.47c1.48-0.292,2.896-0.72,4.215-1.271C25.605,11.288,26,13.574,26,16H21z M20.585,9.537
		c-0.46-3.496-1.298-6.543-2.493-8.201c2.751,0.882,5.078,3.471,6.482,6.984C23.328,8.845,21.989,9.256,20.585,9.537z M19.611,9.714
		C18.433,9.898,17.224,10,16,10s-2.433-0.102-3.611-0.286C13.084,4.379,14.6,1,16,1C17.4,1,18.916,4.379,19.611,9.714z
		 M11.415,9.537c-1.404-0.282-2.743-0.692-3.99-1.217c1.404-3.513,3.731-6.102,6.482-6.984C12.714,2.995,11.875,6.041,11.415,9.537z
		 M11.294,10.53C11.102,12.304,11,14.164,11,16H6c0-2.426,0.395-4.712,1.079-6.742C8.398,9.81,9.814,10.237,11.294,10.53z
		 M11.014,17c0.029,1.508,0.122,3.017,0.28,4.471c-1.48,0.292-2.896,0.72-4.215,1.271C6.49,20.994,6.125,19.055,6.034,17H11.014z
		 M6.17,23.139c-0.88,0.422-1.697,0.907-2.456,1.44C2.189,22.403,1.237,19.807,1.051,17h3.984C5.129,19.196,5.526,21.27,6.17,23.139
		z M4.313,25.38c0.685-0.479,1.417-0.922,2.207-1.305c1.004,2.485,2.449,4.548,4.186,5.943C8.18,29.06,5.977,27.45,4.313,25.38z
		 M21.294,30.017c1.738-1.394,3.182-3.458,4.186-5.943c0.79,0.384,1.522,0.826,2.207,1.305C26.023,27.45,23.82,29.06,21.294,30.017z
		 M27,16c0-2.567-0.428-4.987-1.17-7.139c0.88-0.422,1.698-0.907,2.457-1.44C29.991,9.855,31,12.81,31,16H27z M27.688,6.62
		c-0.685,0.479-1.417,0.921-2.207,1.305c-1.004-2.485-2.449-4.549-4.186-5.943C23.82,2.94,26.023,4.55,27.688,6.62z M10.706,1.983
		C8.968,3.377,7.524,5.441,6.52,7.926C5.729,7.542,4.998,7.099,4.313,6.62C5.977,4.55,8.18,2.94,10.706,1.983z M3.714,7.421
		C4.472,7.954,5.29,8.439,6.17,8.861C5.428,11.013,5,13.433,5,16H1C1,12.81,2.009,9.855,3.714,7.421z"/>
</g>
</svg>
